X:1
T:The Hallelujah Side
T: J. Howard Entwisle
T:The Hallelujah Side
T:Public Domain
T:Public Domain
T:Public Domain
C:J. Howard Entwisle
Z:Public Domain
%%score ( 1 2 ) ( 3 4 )
L:1/8
M:4/4
K:Ab
V:1 treble 
V:2 treble 
V:3 bass 
V:4 bass 
V:1
 [CE][CE] | [CA][CA][CA][DB] [Ec][CA][CA][CE] | [DF][DA][DA][DF] [CE]2 [Ec][Ed] | %3
w: 1.~Once a|sin- ner far from Je- sus, I was|per- ish- ing with cold, But the|
w: 2.~Tho’ the|world may sweep a- round me With her|daz- zle and her dreams, Yet I|
w: 3.~Not for|all earth’s gold- en mil- lions Would I|leave this pre- cious place, Tho’ the|
w: 4.~Here the|sun is al- ways shin- ing, Here the|sky is al- ways bright; ’Tis no|
w: 5.~And up-|on the streets of glo- ry, When we|reach the o- ther shore, And have|
 [Ee][Ee][Ee][Ec] [Ec][EB][EA][Ec] | [EB]6 [DE][DE] | [CA][CA][CA][DB] [Ec][CA][CA]E | %6
w: bless- èd Sav- ior heard me when I|cried; Then He|threw His robe a- round me, And He|
w: en- vy not her van- i- ties and|pride, For my|soul looks up to hea- ven, Where the|
w: tempt- er to per- suade me oft has|tried, For I’m|safe in God’s pa- vil- ion, Hap- py|
w: place for gloom- y Christ- ians to a-|bide, For my|soul is filled with mu- sic And my|
w: safe- ly crossed the Jor- dan’s roll- ing|tide, You will|find me shout- ing “Glo- ry” Just out-|
 [DF][DA][DA][DF] [CE]2 [Ec][Ed] | [Ee][Ec][EA][FB] [Ec]>[Ec] [Ec][DB] | [CA]6 ||"^Refrain" (A_G) | %10
w: me to His fold, And I’m liv-|ing on the hal- le- lu- jah side.|||
w: en sun- light gleams, And I’m liv-|ing on the hal- le- lu- jah side.|||
w: His love and grace, And I’m liv-|ing on the hal- le- lu- jah side.|Oh,|glo- *|
w: with great de- light, And I’m liv-|ing on the hal- le- lu- jah side.|||
w: my man- sion door Where I’m liv-|ing on the hal- le- lu- jah side.|||
 [Fd]>[Fd] [Fd][Fe] [Fd][DF][FA][_FB] | [Ec]>[Fd] [Ec][DB] [CA]2 [CA][EG] | %12
w: ||
w: ||
w: be to Je- sus, let the hal- le-|lu- jahs roll; Help me ring the|
w: ||
w: ||
 [DF][DF][DF][DA] [CE][Ec][Ec][EA] | [EB]6 [DE][DE] | [CA][CA][CA][DB] [Ec][CA][CA]E |] %15
w: |||
w: |||
w: Sav- ior’s prais- es far and wide, For|I’ve o- pened|up tow’rd heavn All the * * *|
w: |||
w: |||
V:2
 x2 | x8 | x8 | x8 | x8 | x7 E | x8 | x8 | x6 || A2 | x8 | x8 | x8 | x8 | x7 E |] %15
w: |||||led||||||||||
w: |||||gold-||||||||||
w: |||||in||||ry||||||
w: |||||heart||||||||||
w: |||||side||||||||||
V:3
 [A,,A,][A,,A,] | [A,,E,][A,,E,][A,,E,][A,,E,] [A,,A,][A,,A,][A,,A,][A,,A,] | %2
w: ~ ~|~ ~ ~ ~ ~ ~ ~ ~|
 [D,A,][D,F,][D,F,][D,A,] [A,,A,]2 A,[A,B,] | [A,C][A,C][A,C]A, [A,,A,][B,,G,][C,A,][A,,A,] | %4
w: ~ ~ ~ ~ ~ ~ ~|~ ~ ~ ~ ~ ~ ~ ~|
 [E,G,]6 [E,G,][E,G,] | [A,,A,][A,,E,][A,,E,][A,,E,] [A,,A,][A,,A,][A,,A,][C,A,] | %6
w: ~ ~ ~|~ ~ ~ ~ ~ ~ D.S.~win- dows|
 [D,A,][F,A,][F,A,][D,A,] [A,,A,]2 A,[A,B,] | [A,C]A,[C,A,][D,A,] [E,A,]>[E,A,] [E,G,][E,G,] | %8
w: of my soul, And I’m liv- ing|the hal- le- lu- jah side. * *|
 [A,,A,]6 || A,2 | [D,A,]>[D,A,] [D,A,][D,A,] [D,A,][D,A,][D,A,][D,A,] | %11
w: |||
 [A,,A,]>[A,,A,] [A,,A,][A,,E,] [A,,E,]2 [A,,E,][C,A,] | %12
w: |
 [D,A,][D,A,][D,A,][F,A,] A,A,[A,,A,][C,A,] | [E,G,]6 [E,G,][E,G,] | %14
w: ||
 [A,,A,][A,,E,][A,,E,][A,,E,] [A,,A,][A,,A,][A,,A,][C,A,] |] %15
w: |
V:4
 x2 | x8 | x6 A, x | x3 A, x4 | x8 | x8 | x6 A, x | x A, x6 | x6 || A,2 | x8 | x8 | x4 A,A, x2 | %13
w: ||~|~|||on|||||||
 x8 | x8 |] %15
w: ||

